icon/lg/zeplin.svg

<?xml version="1.0" encoding="UTF-8"?>
<svg viewBox="0 0 256 205" version="1.1" xmlns="http://www.w3.org/2000/svg" xmlns:xlink="http://www.w3.org/1999/xlink" preserveAspectRatio="xMidYMid" height="1em" width="1em">
  <g>
    <path d="M39.4581835,141.08876 L26.06592,145.981138 L25.3468612,185.822068 L71.7063531,168.886393 C55.8055906,163.545118 44.1938825,154.147745 39.4581835,141.08876" fill="#FDBD39"/>
    <path d="M46.4667106,98.9501402 L0,115.925113 L26.06592,145.981138 L39.4581835,141.08876 C34.7363388,128.067864 37.6482635,113.349016 46.4667106,98.9501402" fill="#F69833"/>
    <path d="M124.661911,41.4617978 C65.4909743,63.0776445 27.3438118,107.682177 39.4581835,141.08876 L253.735454,62.8105729 C241.621082,29.4038388 183.832998,19.8458002 124.661911,41.4617978" fill="#FECF33"/>
    <path d="M168.531576,162.437536 C227.702664,140.821538 265.921506,96.4148524 253.735454,62.8105729 L39.4581835,141.08876 C51.6440849,174.693191 109.36064,184.053382 168.531576,162.437536" fill="#EE6723"/>
    <path d="M253.735454,62.8105729 L39.4581835,141.08876 C43.6540237,152.65928 59.6544751,158.359673 82.1049225,158.359673 C103.99232,158.359673 132.010165,152.945698 161.219915,142.274787 C220.391153,120.65894 262.021873,85.6614162 253.735454,62.8105729" fill="#F69833"/>
    <path d="M211.088715,45.5395094 C189.201167,45.5395094 161.183473,50.9536355 131.973421,61.6243956 C72.8024849,83.240393 31.1716141,118.237766 39.4581835,141.08876 L253.735454,62.8105729 C249.539614,51.239902 233.539162,45.5395094 211.088715,45.5395094" fill="#FDBD39"/>
    <path d="M199.254889,187.931735 L199.253384,187.931735 C192.949007,187.931735 183.648075,182.237086 171.608696,171.006186 C157.365459,157.718974 141.049826,138.257533 125.666635,116.207148 C110.284047,94.1576692 97.6439718,72.1133296 90.0749551,54.13461 C81.8282918,34.5422784 80.6524988,22.4956552 86.5801037,18.329071 C87.8798306,17.416464 89.4465506,16.9541148 91.2364425,16.9541148 C96.0581269,16.9541148 105.453026,20.5439339 122.825788,37.6467743 L123.205722,38.0205532 L123.154372,38.5521264 C123.035558,39.7807752 122.92608,41.0204576 122.828499,42.237166 L122.634842,44.6532016 L120.930485,42.9360556 C102.211915,24.0779808 93.9720282,22.0420723 91.2978825,22.0420723 C90.5353037,22.0420723 89.9279812,22.1971459 89.4926306,22.5032124 C86.9214869,24.3098355 86.7559906,33.1584047 94.7511718,52.1509974 C102.185111,69.8092916 114.641318,91.5202079 129.82528,113.284175 C145.009845,135.050259 161.075802,154.224073 175.064395,167.273688 C190.148969,181.345185 196.946522,182.864635 199.169054,182.864635 C199.936452,182.864635 200.560038,182.699737 201.022494,182.374476 C203.734889,180.468702 203.738052,170.98956 194.822024,150.547195 L194.412725,149.608743 L195.308725,149.118281 C196.204875,148.627668 197.071511,148.144611 197.884235,147.682565 L198.957628,147.072548 L199.452461,148.206278 C205.774456,162.691306 211.683991,181.101391 203.935021,186.548617 C202.628518,187.466363 201.054118,187.931735 199.254889,187.931735 L199.254889,187.931735 Z M199.253384,185.697374 L199.254984,185.697374 L199.253917,186.814479 L199.253384,185.697374 Z" fill="#EE6723"/>
    <path d="M169.968038,161.826763 L169.877986,162.940089 C168.382042,181.450231 164.443256,203.703753 154.17344,204.60442 C153.966833,204.622859 153.752546,204.632382 153.538259,204.632382 C146.561656,204.632382 139.961224,194.636479 133.920678,174.921871 C128.205402,156.270713 123.770428,131.228585 121.432696,104.408702 C119.094814,77.5944125 119.129901,52.1599148 121.531332,32.7909739 C124.148856,11.6847846 129.132122,0.662463744 136.341835,0.02977536 C136.554918,0.0101266347 136.775831,0 136.994033,0 C142.055153,0 149.682748,5.73077248 157.491351,32.4236942 L152.392734,33.4077922 C149.7856,24.4877319 146.944301,17.2328242 144.123633,12.2476445 C141.514391,7.63654609 138.977431,5.09717726 136.979576,5.09717726 C136.91392,5.09717726 136.847812,5.09989786 136.782607,5.10549018 C133.6576,5.37996753 129.106522,12.9602881 126.569261,33.4203371 C124.210598,52.4417984 124.182136,77.4951109 126.489148,103.965246 C128.797515,130.439311 133.160056,155.107207 138.772781,173.424186 C141.2864,181.627825 144.04352,188.388794 146.745976,192.976616 C149.238061,197.207285 151.649732,199.53732 153.536753,199.53732 C153.601656,199.53732 153.666259,199.534297 153.730711,199.528856 C156.720791,199.266773 162.355652,191.378572 164.727266,163.625225 L169.968038,161.826763" fill="#EE6723"/>
  </g>
</svg>

<svg width="256" height="205" xmlns="http://www.w3.org/2000/svg" preserveAspectRatio="xMidYMid"><path d="m39.458 141.089-13.392 4.892-.72 39.841 46.36-16.936c-15.9-5.34-27.512-14.738-32.248-27.797" fill="#FDBD39"/><path d="M46.467 98.95 0 115.925l26.066 30.056 13.392-4.892c-4.722-13.021-1.81-27.74 7.009-42.139" fill="#F69833"/><path d="M124.662 41.462c-59.171 21.616-97.318 66.22-85.204 99.627L253.735 62.81c-12.114-33.407-69.902-42.965-129.073-21.35" fill="#FECF33"/><path d="M168.532 162.438c59.17-21.616 97.39-66.023 85.203-99.627L39.458 141.089c12.186 33.604 69.903 42.964 129.074 21.349" fill="#EE6723"/><path d="M253.735 62.81 39.458 141.09c4.196 11.57 20.196 17.27 42.647 17.27 21.887 0 49.905-5.413 79.115-16.084 59.171-21.616 100.802-56.614 92.515-79.464" fill="#F69833"/><path d="M211.089 45.54c-21.888 0-49.906 5.414-79.116 16.084-59.17 21.616-100.801 56.614-92.515 79.465L253.735 62.81C249.54 51.24 233.54 45.54 211.09 45.54" fill="#FDBD39"/><path d="M199.255 187.932h-.002c-6.304 0-15.605-5.695-27.644-16.926-14.244-13.287-30.56-32.748-45.942-54.799-15.383-22.05-28.023-44.094-35.592-62.072-8.247-19.593-9.423-31.64-3.495-35.806 1.3-.913 2.867-1.375 4.656-1.375 4.822 0 14.217 3.59 31.59 20.693l.38.374-.052.531a226.977 226.977 0 0 0-.326 3.685l-.193 2.416-1.705-1.717c-18.718-18.858-26.958-20.894-29.632-20.894-.763 0-1.37.155-1.805.461-2.572 1.807-2.737 10.655 5.258 29.648 7.434 17.658 19.89 39.37 35.074 61.133 15.185 21.766 31.25 40.94 45.24 53.99 15.084 14.071 21.882 15.59 24.104 15.59.767 0 1.391-.164 1.853-.49 2.713-1.905 2.716-11.384-6.2-31.827l-.41-.938.897-.49c.896-.491 1.763-.974 2.575-1.436l1.074-.61.494 1.133c6.322 14.485 12.232 32.895 4.483 38.343-1.306.917-2.88 1.383-4.68 1.383Zm-.002-2.235h.002l-.001 1.117v-1.117Z" fill="#EE6723"/><path d="m169.968 161.827-.09 1.113c-1.496 18.51-5.435 40.764-15.705 41.664-.206.019-.42.028-.635.028-6.976 0-13.577-9.996-19.617-29.71-5.716-18.651-10.15-43.693-12.488-70.513-2.338-26.815-2.303-52.25.098-71.618C124.15 11.685 129.132.662 136.341.03c.214-.02.435-.03.653-.03 5.061 0 12.689 5.73 20.497 32.424l-5.098.984c-2.607-8.92-5.449-16.175-8.27-21.16-2.609-4.611-5.146-7.15-7.143-7.15-.066 0-.132.002-.197.007-3.125.275-7.676 7.855-10.214 28.315-2.358 19.022-2.387 44.075-.08 70.545 2.309 26.474 6.671 51.142 12.284 69.46 2.513 8.203 5.27 14.964 7.973 19.552 2.492 4.23 4.904 6.56 6.79 6.56.066 0 .13-.003.195-.008 2.99-.262 8.625-8.15 10.996-35.904l5.241-1.798" fill="#EE6723"/></svg>
